X:1
T:Pedants Revolt
C:Colin Cotter
M:C
K:A
A2 c2 z2 cB|A2 c2 B2 cB|A2 e2 z2 cd|e2 A2 B2 cB|A2 c2 z2 cB|
A2 c2 B2 cd|e A2 B2 cd| e2 A2 B2 cd|[1 e2 A2 B2 cB :|[2 e2 A2 B2 ef |: g2 f2 e2 d2|c2 dc B2 cd|
A2 E2 A2 B2|c2 dc B2 ef|g2 f2 e2 d2|c2 dc B2 cB|A2 c2 z2 cB|[1 A2 c2 B2 ef:|A2 c2 B2 cB|]
